24x24/mimetypes/text-x-haskell.svg

<svg height="24" width="24" xmlns="http://www.w3.org/2000/svg"><path d="m5 2.5c-.554 0-1 .446-1 1v18c0 .554.446 1 1 1h14c.554 0 1-.446 1-1v-13l-5.5-.5-.5-5.5z" opacity=".2"/><path d="m5 2c-.554 0-1 .446-1 1v18c0 .554.446 1 1 1h14c.554 0 1-.446 1-1v-13l-5.5-.5-.5-5.5z" fill="#f4f4f7"/><path d="m5 2c-.554 0-1 .446-1 1v.5c0-.554.446-1 1-1h9v-.5z" fill="#f4f4f7" opacity=".2"/><path d="m14 2.5v5a1 1 0 0 0 1 1h5z" opacity=".2"/><path d="m14 2v5a1 1 0 0 0 1 1h5z" fill="#fafafa"/><path d="m7.5 10 2.5 4.5-2.5 4.5h1.5l2.5-4.5-2.5-4.5z" fill="#8b82a4"/><path d="m10 10 2.5 4.5-2.5 4.5h1.5l1.75-3 1.75 3h1.5l-5-9z" fill="#5f5088"/><path d="m14.166 13 .557 1h2.277v-1zm1.111 2 .557 1h1.166v-1z" fill="#8b82a4"/></svg>

<svg xmlns="http://www.w3.org/2000/svg" width="24" height="24"><path style="opacity:.2" d="M5 2.5c-.554 0-1 .446-1 1v18c0 .554.446 1 1 1h14c.554 0 1-.446 1-1v-13L14.5 8 14 2.5z"/><path style="fill:#f4f4f7" d="M5 2c-.554 0-1 .446-1 1v18c0 .554.446 1 1 1h14c.554 0 1-.446 1-1V8l-5.5-.5L14 2z"/><path style="opacity:.2;fill:#f4f4f7" d="M5 2c-.554 0-1 .446-1 1v.5c0-.554.446-1 1-1h9V2H5z"/><path style="opacity:.2" d="M14 2.5v5a1 1 0 0 0 1 1h5z"/><path style="fill:#fafafa" d="M14 2v5a1 1 0 0 0 1 1h5z"/><path style="fill:#8b82a4" d="m7.5 10 2.5 4.5L7.5 19H9l2.5-4.5L9 10z"/><path style="fill:#5f5088" d="m10 10 2.5 4.5L10 19h1.5l1.75-3L15 19h1.5l-5-9z"/><path style="fill:#8b82a4" d="m14.166 13 .557 1H17v-1zM15.277 15l.557 1H17v-1z"/></svg>
